!!!COM: Leoš [Leo Eugen] Janáček
!!!OTL: [T149_Jan-w40p51-52h25m1-8]
**kern	**dynam	**kern	**dynam	**kern	**dynam	**kern	**dynam
*grp:A	*grp:A	*grp:A	*grp:A	*grp:A	*grp:A	*grp:B	*grp:B
*part4	*part4	*part3	*part3	*part2	*part2	*part1	*part1
*staff4	*staff4	*staff3	*staff3	*staff2	*staff2	*staff1	*staff1
*I"Violoncello	*I"Violoncello	*I"Viola	*I"Viola	*I"Bassoon I. II.	*I"Bassoon I. II.	*I"Clarinet in Bb I.II.	*I"Clarinet in Bb I.II.
*I'Vc.	*	*I'Vla.	*	*I'Bsn. I.	*	*I'Cl.	*
!!pagebreak:original
*clefF4	*	*clefC3	*	*clefF4	*	*clefG2	*
*	*	*	*	*	*	*ITrd1c2	*
*k[]	*	*k[]	*	*k[]	*	*k[b-e-]	*
*	*	*	*	*	*	*	*
*M4/4	*	*M4/4	*	*M4/4	*	*M4/4	*
=1	=1	=1	=1	=1	=1	=1	=1
!	!	!	!	!	!	!LO:TX:t=[half]=76	!
!	!	!	!	!LO:TX:a:t=I.	!	!LO:TX:a:t=I. Solo	!
(6F	mp	((12fL	mp	(6F	mp	4r	.
.	.	12d-X	.	.	.	.	.
6A-X	.	12dn)	.	6A-X	.	.	.
!	!	!	!	!	!	!LO:TX:a:i:t=espress.	!
.	.	(12d	.	.	.	(4gg	f <
6G	.	12B-X	.	6G	.	.	.
.	.	12c-XJ))	.	.	.	.	.
6F	.	((12fL	.	6F	.	4aa-X	.
.	.	12d-X	.	.	.	.	.
6A-	.	12dn)	.	6A-	.	.	.
.	.	(12d	.	.	.	4ff	.
6G)	.	12B-	.	6G	.	.	.
.	.	12c-J))	.	.	.	.	.
=2	=2	=2	=2	=2	=2	=2	=2
(6F	.	((12fL	.	6F	.	2..bb-	[ >
.	.	12d-X	.	.	.	.	.
6A-X	.	12dn)	.	6A-X	.	.	.
.	.	(12d	.	.	.	.	.
6G	.	12B-X	.	6G	.	.	.
.	.	12c-XJ))	.	.	.	.	.
6F	.	((12fL	.	6F	.	.	.
.	.	12d-X	.	.	.	.	.
6A-	.	12dn)	.	6A-	.	.	.
.	.	(12d	.	.	.	.	.
6G)	.	12B-	.	6G	.	.	.
.	.	.	.	.	.	8aa-X	]
.	.	12c-J))	.	.	.	.	.
!!linebreak:original
=3	=3	=3	=3	=3	=3	=3	=3
(6F	.	((12fL	.	6F	.	8dd-X	.
.	.	12d-X	.	.	.	.	.
.	.	.	.	.	.	[4.cc-X)	.
6A-X	.	12dn)	.	6A-X	.	.	.
.	.	(12d	.	.	.	.	.
6G	.	12B-X	.	6G	.	.	.
.	.	12c-XJ))	.	.	.	.	.
6F	.	((12fL	.	6F	.	8cc-]	.
.	.	12d-X	.	.	.	.	.
.	.	.	.	.	.	8r	.
6A-	.	12dn)	.	6A-	.	.	.
.	.	(12d	.	.	.	4r	.
6G)	.	12B-	.	6G)	.	.	.
.	.	12c-J))	.	.	.	.	.
=4	=4	=4	=4	=4	=4	=4	=4
(6F-X	.	((12dnL	.	(6F-X	.	1r	.
.	.	12B-X	.	.	.	.	.
6A-X	.	12c-X)	.	6A-X	.	.	.
.	.	(12c-	.	.	.	.	.
6G-X	.	12An	.	6G-X	.	.	.
.	.	12B-J))	.	.	.	.	.
6F-	.	((12dL	.	6F-	.	.	.
.	.	12B-	.	.	.	.	.
6A-	.	12c-)	.	6A-	.	.	.
.	.	(12c-	.	.	.	.	.
!	!	!	!	!	!LO:HP:t=dimin.	!	!
6G-)	.	12A	.	6G-)	>	.	.
!	!	!	!LO:HP:t=dimin.	!	!	!	!
.	.	12B-J))	>	.	.	.	.
=5	=5	=5	=5	=5	=5	=5	=5
(6F-X	.	((12dL	.	(6F-X	.	1r	.
.	.	12B-X	.	.	.	.	.
6A-X	.	12c-X)	.	6A-X	.	.	.
.	.	(12c-	.	.	.	.	.
6G-X	.	12A	.	6G-X	.	.	.
.	.	12B-J))	.	.	.	.	.
6F-	.	((12dL	>	6F-	.	.	.
.	.	12B-	.	.	.	.	.
6A-	.	12c-)	.	6A-	.	.	.
.	.	(12c-	.	.	.	.	.
6G-)	.	12A	.	6G-)	.	.	.
.	.	12B-J))	]	.	.	.	.
!!linebreak:original
=6	=6	=6	=6	=6	=6	=6	=6
!	!	!	!	!LO:TX:a:t=I.	!	!	!
(6E-X	.	((12d-XL	.	(6E-X	>	1r	.
.	.	12An	.	.	.	.	.
6G-X	.	12B-X)	.	6G-X	.	.	.
.	.	(12B-	.	.	.	.	.
6F-X	.	12F#X	.	6F-X	.	.	.
.	.	12GJ))	.	.	.	.	.
6E-	.	((12d-L	.	6E-	.	.	.
.	.	12A	.	.	.	.	.
6G-	.	12B-)	.	6G-	.	.	.
.	.	(12B-	.	.	.	.	.
6F-)	.	12F#	.	6F-)	]]	.	.
.	.	12GJ))	.	.	.	.	.
=7	=7	=7	=7	=7	=7	=7	=7
*	*	*	*	*^	*	*	*
(6AA-X	p	((12cL	p	(6E-X	[1AA-X	pp	4r	.
.	.	12A-X	.	.	.	.	.	.
6F-X	.	12An)	.	6F-X	.	.	.	.
!	!	!	!	!	!	!	!LO:TX:a:t=Solo	!
.	.	(12A	.	.	.	.	(4a-X	mp <
6E-X	.	12F	.	6E-)	.	.	.	.
.	.	12G-XJ))	.	.	.	.	.	.
6AA-	.	((12cL	.	(6E-	.	.	4a	.
.	.	12A-X	.	.	.	.	.	.
6F-	.	12An)	.	6F-	.	.	.	.
!	!	!LO:TX:a:t=allargando	!	!	!	!	!LO:TX:a:t=allargando	!
.	.	(12A	.	.	.	.	4g-X	[
6E-)	.	12F	.	6E-)	.	.	.	.
.	.	12G-XJ))	.	.	.	.	.	.
=8	=8	=8	=8	=8	=8	=8	=8	=8
!	!	!	!	!	!	!	!LO:TX:a:t=rit.	!
(6AA-X	> >	((12cnL	.	(6E-X	2AA-]	.	2..ff-X	>
.	.	12A-X	.	.	.	.	.	.
6F-X	.	12An)	.	6F-X	.	.	.	.
.	.	(12A	.	.	.	.	.	.
6E-X)	.	12F	.	6E-)	.	.	.	.
.	.	12G-XJ))	.	.	.	.	.	.
2r	] ]	2r	.	2r	2ryy	.	.	.
.	.	.	.	.	.	.	8ee-)	]
*	*	*	*	*v	*v	*	*	*
=	=	=	=	=	=	=	=
*-	*-	*-	*-	*-	*-	*-	*-
!!!system-decoration: [(s1,s2)][(s3,s4)]
